svgs/sharp-solid/otter.svg

<svg xmlns="http://www.w3.org/2000/svg" viewBox="0 0 640 512"><!--! Font Awesome Pro 6.6.0 by @fontawesome - https://fontawesome.com License - https://fontawesome.com/license (Commercial License) Copyright 2024 Fonticons, Inc. --><path d="M188.8 193.6L208 208l16 0 32 0 0-16 0-32 0-16c0-35.3-28.7-64-64-64l-64 0c-35.3 0-64 28.7-64 64l0 56 0 8 32 0 16 0 19.2-14.4 7.9-5.9-7.5-5-3.6-2.4 0-4.3 0-24 0-8 8 0 48 0 8 0 0 8 0 24 0 4.3-3.6 2.4-7.5 5 7.9 5.9zM256 320l0 64 128 0 0-32 0-32 32-32 32-32 0-32 0-32 64 0 0 48 0 16 0 64 32 0 0-115.7c0-48.2-30.8-91-76.6-106.3l-8.5-2.8 8.2-30.9 19.9 4C576 86.1 640 164.2 640 254.9l0 1.1s0 0 0 0c0 123.7-100.3 224-224 224l-1.1 0L256 480l-.6 0C132 480 32 380 32 256.6l0-.6-16 0 0-48 0-64L0 144 0 96l24 0 2.8 0C44.8 58.2 83.3 32 128 32l64 0c44.7 0 83.2 26.2 101.2 64l2.8 0 24 0 0 48-16 0 0 16 48 0 32 0 0 64-32 0-32 0 0 32 80 0-48 48 0 16-32 0c-41.8 0-77.4-26.7-90.5-64L192 256l-32-24-32 24-32 0c0 35.3 28.7 64 64 64l64 0 32 0zM96 128a16 16 0 1 1 0 32 16 16 0 1 1 0-32zm112 16a16 16 0 1 1 32 0 16 16 0 1 1 -32 0z"/></svg>

<svg xmlns="http://www.w3.org/2000/svg" viewBox="0 0 640 512"><!--! Font Awesome Pro 6.4.0 by @fontawesome - https://fontawesome.com License - https://fontawesome.com/license (Commercial License) Copyright 2023 Fonticons, Inc. --><path d="M188.8 193.6L208 208h16 32V192 160 144c0-35.3-28.7-64-64-64H128c-35.3 0-64 28.7-64 64v56 8H96h16l19.2-14.4 7.9-5.9-7.5-5-3.6-2.4V176 152v-8h8 48 8v8 24 4.3l-3.6 2.4-7.5 5 7.9 5.9zM256 320v64H384V352 320l32-32 32-32V224 192h64v48 16 64h32V204.3c0-48.2-30.8-91-76.6-106.3l-8.5-2.8 8.2-30.9 19.9 4C576 86.1 640 164.2 640 254.9l0 1.1h0c0 123.7-100.3 224-224 224h-1.1H256h-.6C132 480 32 380 32 256.6V256H16V208 144H0V96H24h2.8C44.8 58.2 83.3 32 128 32h64c44.7 0 83.2 26.2 101.2 64H296h24v48H304v16h48 32v64H352 320v32h80l-48 48v16H320c-41.8 0-77.4-26.7-90.5-64H192l-32-24-32 24H96c0 35.3 28.7 64 64 64h64 32zM96 128a16 16 0 1 1 0 32 16 16 0 1 1 0-32zm112 16a16 16 0 1 1 32 0 16 16 0 1 1 -32 0z"/></svg>
